X: 10312
T: LOCH ERROCH SIDE.     a Strathspey.
Q: "Slow"
R: strathspey
B: "Edinburgh Repository of Music" v.1 p.31 #2
F: http://digital.nls.uk/special-collections-of-printed-music/pageturner.cfm?id=87776133
Z: 2015 John Chambers <jc:trillian.mit.edu>
M: C
L: 1/16
K: F
cB |\
(A2c2)~c3d fefg f3e | d3cd2f2 (gfga) g2G2 |\
A2c2c3d Tf3g {fg}a3g | f3d (cdf).A TG4 F2 :|
c'b |\
a2c'2 f2ab (c'ba).b {ab}c'4 | b2d'2 g2(bc') (d'c'b).c' (d'2c'b) |\
a2c'2 | f2ab c'bab c'2f2 | c3fa3f Tg4 f2c'b |
a2c'2 f2ab (c'ba).b c'2ba | b2d'2 g2bc' (d'c').b.c' d'2c'b |\
a3c'g3a f2d2f2d'2 | f3cf3A TG4 F2 |]

%%sep 2 1 500
%%sep 1 1 500

